X:175
T: Jegenyefa tetejében...
M: 2/4
L: 1/8
K: C
defd | fedc | 
Bcdd | cB GG | 
dcBc | dccB | 
BBcd | cB GG | 

